X: 273
T: Baimaolin maihua
L: 1/8
M: 2/4
K: Bb
b2d'2 [I:setbarnb 1]| 
d' c'b2 | 
d'2g2 | 
f2g b | 
b2d'2 | 
a c'd'2 | 
d'2d' c' | 
g4 | 
b2d'2 | 
d' c'b2 | 
d'2g2 | 
f2g b | 
b2d c | 
g b b g | 
f4 | 
b b b g | 
f g f g | 
d df2- | 
f2b2 | 
d'2d' c' | 
b2d'2 | 
g2f e | 
g fd2 | 
d' c'd'2- | 
d'2d' d' | 
d' c' b g | 
g fd2 | 
d'2d' c' | 
b3c' | 
f' d' c' d' | 
d' bc'2 | 
b gf2 |]

@@@ Tune index: 9147
